build/images/money.svg

<?xml version="1.0" encoding="UTF-8"?>
<svg width="54px" height="52px" viewBox="0 0 54 52" version="1.1" xmlns="http://www.w3.org/2000/svg" xmlns:xlink="http://www.w3.org/1999/xlink">
    <!-- Generator: sketchtool 63.1 (101010) - https://sketch.com -->
    <title>05B393F9-240C-48ED-9AC5-F36FFF4D4648</title>
    <desc>Created with sketchtool.</desc>
    <g id="Page-1" stroke="none" stroke-width="1" fill="none" fill-rule="evenodd">
        <g id="Kupa-shop---design" transform="translate(-689.000000, -2687.000000)" fill="#1E7960" fill-rule="nonzero">
            <g id="money" transform="translate(689.000000, 2687.000000)">
                <path d="M51.9517241,13.8138326 L51.9407708,13.802954 C51.4916836,13.4004435 50.8016227,13.4004435 50.3744422,13.8247113 C49.9472617,14.2489791 49.9472617,14.9343347 50.3744422,15.3586025 C52.1707911,17.1427029 52.1707911,20.0364268 50.3744422,21.8205272 C48.5780933,23.6046276 45.664503,23.6046276 43.8681542,21.8205272 C43.8462475,21.7987699 43.8352941,21.7878912 43.8133874,21.7770126 C42.1703854,19.4924937 40.0673428,17.5778494 37.6466531,16.1527448 C40.1549696,10.2782678 37.3837728,3.50086192 31.4689655,1.0205272 C25.5541582,-1.45980753 18.7302231,1.28161506 16.23286,7.15609205 C15.7290061,8.35274477 15.4223124,9.62554812 15.3346856,10.9201088 C14.1736308,10.593749 13.2425963,10.4414477 12.5196755,10.463205 C11.3586207,10.4740837 10.5042596,11.1920753 10.3728195,12.2473054 C10.296146,12.7150879 10.3509128,13.4004435 10.6028398,15.630569 L10.83286,17.7627866 C8.72981744,19.4598577 7.07586207,21.4397741 5.88194726,23.6590209 L2.70547667,24.2791046 C1.12819473,24.5945858 0,25.9761757 0,27.5644603 L0,34.5594393 C0,36.1586025 1.12819473,37.5293138 2.70547667,37.844795 L5.89290061,38.4757573 C6.51724138,39.6941674 7.28397566,40.8364268 8.1821501,41.8807782 C6.99918864,44.7962594 7.87545639,48.1360084 10.3290061,50.1268033 C11.7858012,51.3016987 13.6150101,51.9435397 15.4880325,51.9327971 C17.6239351,51.9327971 19.6831643,51.1276402 21.2494929,49.6807782 L22.0162272,48.9627866 C24.8421907,49.3870544 27.7338742,49.2891464 30.5269777,48.7016987 L31.611359,49.7351715 C33.1119675,51.1385188 35.1054767,51.9217824 37.1647059,51.9000251 L37.3947262,51.9000251 C37.4056795,51.9000251 37.4166329,51.9000251 37.4275862,51.9000251 C39.5744422,51.8456318 41.6117647,50.9535816 43.1014199,49.4088117 C45.4016227,46.993749 45.6754564,43.3602762 43.8572008,40.5100669 C45.91643,37.6598577 47.0008114,34.3962594 47.0008114,31.0238745 L47.0008114,30.2297322 C47.0008114,30.2079749 47.0008114,30.1862176 47.0008114,30.1644603 C46.9022312,28.5435397 46.4750507,26.8682259 45.7302231,25.1711548 C47.9756592,25.6498159 50.3196755,24.9644603 51.9407708,23.3435397 C54.5914807,20.7109038 54.5914807,16.4464686 51.9517241,13.8138326 Z M26.9452333,2.27155202 C32.148073,2.26069456 36.3760649,6.43810042 36.3870753,11.6054644 C36.3979716,14.7276402 34.831643,17.654 32.2137931,19.3945858 C32.1261663,19.4598577 32.0385396,19.5904017 31.9728195,19.5904017 L21.9614604,19.5904017 C21.9176471,19.5904017 21.8628803,19.5251297 21.8081136,19.4816151 C19.3217039,17.8824519 17.7444219,15.2171799 17.525355,12.2908201 C17.5034483,12.0406109 17.5034483,11.8230377 17.5034483,11.6272218 C17.5144016,6.4707364 21.7314402,2.28245188 26.9452333,2.27155202 Z M41.7322515,39.705046 C41.5460446,39.9226192 41.2612576,40.4230377 41.6008114,41.0975146 C41.6336714,41.1627866 41.6665314,41.2171799 41.7103448,41.2715732 C43.2985801,43.3276402 43.2109533,46.1125774 41.5022312,47.9075565 C40.4178499,49.0280586 38.9501014,49.7242929 37.3618661,49.7242929 L37.1537525,49.7242929 C35.653144,49.7351715 34.2073022,49.1803598 33.1119675,48.1577657 L31.6880325,46.8088117 C31.4361055,46.5694812 31.0965517,46.4389372 30.756998,46.4498159 C30.6693712,46.4498159 30.5926978,46.4606946 30.505071,46.4824519 C27.6900609,47.1460502 24.7764706,47.2330795 21.9176471,46.7544184 C21.851927,46.7435397 21.7971602,46.7435397 21.7314402,46.7435397 C21.3809331,46.7326611 21.0523327,46.863205 20.8004057,47.1025356 L19.7269777,48.114251 C18.631643,49.1259665 17.2186613,49.7025356 15.7290061,49.7678075 C14.272211,49.8439582 12.8263692,49.3761757 11.6872211,48.4732469 C9.86896552,46.993749 9.31034483,44.4590209 10.3509128,42.3594393 C10.515213,42.0874728 10.5590264,41.7502343 10.4713996,41.4347531 C10.4275862,41.2389372 10.3399594,41.0648787 10.2085193,40.9234561 C9.17890467,39.802954 8.31359026,38.5301506 7.64543611,37.1594393 C7.59066937,37.0506527 7.52494929,36.9527448 7.43732252,36.8657155 C7.22920892,36.6372636 6.95537525,36.495841 6.65963489,36.4414477 L3.1326572,35.7343347 C2.58498986,35.6255481 2.19044675,35.1360084 2.19044675,34.5811967 L2.19044675,27.5644603 C2.17971602,27.0096485 2.57403651,26.5201088 3.1326572,26.4113222 L6.67058824,25.7042092 C6.9663286,25.6498159 7.24016227,25.5083933 7.44827586,25.2799414 C7.53590264,25.1929121 7.60162272,25.1058828 7.65638945,24.9970962 C8.77363083,22.7778494 10.4385396,20.7979331 12.5963489,19.1443766 C12.6292089,19.1117406 12.662069,19.0899833 12.694929,19.0573473 C12.946856,18.8071381 13.0782961,18.4698996 13.0673428,18.1217824 C13.0673428,18.0782678 13.0673428,18.0456318 13.0563895,18.0021172 L12.7716024,15.3912385 C12.6730223,14.5535816 12.5087221,13.0414477 12.5306288,12.6280586 C12.5415822,12.6280586 12.5634888,12.6280586 12.5744422,12.6280586 C13.0125761,12.6171799 13.8559838,12.6933305 15.411359,13.193749 C15.7399594,15.6088117 16.8352941,17.8498159 18.5330629,19.6012803 L17.4924949,19.6012803 C16.8900609,19.6012803 16.3971602,20.0908201 16.3971602,20.6891464 C16.3971602,21.2874728 16.8900609,21.7770126 17.4924949,21.7770126 L36.474645,21.7770126 C37.0770791,21.7770126 37.5699797,21.2874728 37.5699797,20.6891464 C37.5699797,20.0908201 37.0770791,19.6012803 36.474645,19.6012803 L35.335497,19.6012803 C35.8174442,19.1334979 36.2446247,18.6113222 36.6060852,18.0456318 C39.1363083,19.5686444 41.2174442,21.6138326 42.6523327,23.9636234 L43.4300203,25.454 C44.2296146,27.0966778 44.6896552,28.761113 44.7991886,30.2841255 L44.7991886,31.0347531 L44.7991886,31.0347531 C44.7991886,34.1351715 43.736714,37.1268033 41.7322515,39.705046 Z" id="Shape"></path>
                <path d="M15.1703854,25.5845439 C13.6150101,25.5845439 12.3663286,26.83559 12.3663286,28.3694812 C12.3663286,29.914251 13.6259635,31.1544184 15.1703854,31.1544184 C16.7148073,31.1544184 17.9744422,29.9033724 17.9744422,28.3694812 C17.9853955,26.83559 16.7257606,25.5845439 15.1703854,25.5845439 Z M15.1703854,28.9895649 C14.8308316,28.9895649 14.556998,28.7175983 14.556998,28.3803598 C14.556998,28.0431213 14.8308316,27.7711548 15.1703854,27.7711548 C15.5099391,27.7711548 15.7837728,28.0431213 15.7837728,28.3803598 C15.7947262,28.7175983 15.5208925,28.9895649 15.1703854,28.9895649 Z" id="Shape"></path>
                <path d="M26.9452333,5.03475314 C23.2758621,5.03475314 20.3075051,7.98287029 20.3075051,11.6272218 C20.3184584,15.2606946 23.2868154,18.2088117 26.9452333,18.2196904 C30.6146045,18.2196904 33.5829615,15.2715732 33.5829615,11.6272218 C33.5829615,7.98287029 30.6146045,5.03475314 26.9452333,5.03475314 Z M26.9452333,16.0439582 C24.4916836,16.0439582 22.4981744,14.0640418 22.4981744,11.6272218 C22.4981744,9.19040167 24.4916836,7.21048536 26.9452333,7.21048536 C29.398783,7.21048536 31.3922921,9.19040167 31.3922921,11.6272218 C31.3922921,14.0640418 29.398783,16.0439582 26.9452333,16.0439582 Z" id="Shape"></path>
            </g>
        </g>
    </g>
</svg>

<svg width="54" height="52" xmlns="http://www.w3.org/2000/svg"><g id="Page-1" stroke="none" stroke-width="1" fill="none" fill-rule="evenodd"><g id="Kupa-shop---design" transform="translate(-689 -2687)" fill="#1E7960" fill-rule="nonzero"><g id="money" transform="translate(689 2687)"><path d="M51.952 13.814l-.011-.011c-.45-.403-1.14-.403-1.567.022a1.078 1.078 0 000 1.534 4.548 4.548 0 010 6.462 4.624 4.624 0 01-6.506 0c-.022-.022-.033-.033-.055-.044a20.251 20.251 0 00-6.166-5.624c2.508-5.875-.263-12.652-6.178-15.132-5.915-2.48-12.739.26-15.236 6.135a11.754 11.754 0 00-.898 3.764c-1.161-.326-2.092-.479-2.815-.457-1.161.011-2.016.73-2.147 1.784-.077.468-.022 1.153.23 3.384l.23 2.132C8.73 19.46 7.076 21.44 5.882 23.659l-3.177.62A3.36 3.36 0 000 27.564v6.995a3.35 3.35 0 002.705 3.286l3.188.63a17.361 17.361 0 002.29 3.406c-1.184 2.915-.308 6.255 2.146 8.246a8.161 8.161 0 005.159 1.806 8.495 8.495 0 005.761-2.252l.767-.718c2.826.424 5.718.326 8.511-.261l1.084 1.033a8.024 8.024 0 005.554 2.165h.263a8.163 8.163 0 005.673-2.491c2.3-2.415 2.574-6.049.756-8.899 2.06-2.85 3.144-6.114 3.144-9.486v-.86c-.099-1.62-.526-3.296-1.27-4.993a6.789 6.789 0 006.21-1.827 6.714 6.714 0 00.01-9.53zM26.945 2.272c5.203-.011 9.431 4.166 9.442 9.333a9.322 9.322 0 01-4.173 7.79c-.088.065-.175.195-.241.195H21.96c-.043 0-.098-.065-.153-.108a9.38 9.38 0 01-4.283-7.191c-.022-.25-.022-.468-.022-.664.011-5.156 4.228-9.345 9.442-9.355zm14.787 37.433c-.186.218-.47.718-.131 1.393.033.065.066.12.11.174 1.588 2.056 1.5 4.84-.209 6.636-1.084 1.12-2.552 1.816-4.14 1.816h-.208a5.85 5.85 0 01-4.042-1.566l-1.424-1.35a1.302 1.302 0 00-1.183-.326 21.74 21.74 0 01-8.587.272c-.066-.01-.12-.01-.187-.01-.35-.011-.679.12-.93.359l-1.074 1.011a6.278 6.278 0 01-3.998 1.654 6.026 6.026 0 01-4.042-1.295 5.011 5.011 0 01-1.336-6.114 1.18 1.18 0 00.12-.924 1.09 1.09 0 00-.262-.512 15.807 15.807 0 01-2.564-3.764 1.104 1.104 0 00-.208-.293 1.38 1.38 0 00-.777-.425l-3.527-.707a1.179 1.179 0 01-.943-1.153v-7.017a1.158 1.158 0 01.943-1.153l3.538-.707a1.38 1.38 0 00.777-.424c.088-.087.154-.174.208-.283 1.118-2.22 2.783-4.2 4.94-5.853.033-.032.066-.054.099-.087.252-.25.383-.587.372-.935 0-.044 0-.076-.01-.12l-.285-2.61c-.099-.838-.263-2.35-.241-2.764h.043c.439-.01 1.282.065 2.837.566a11.415 11.415 0 003.122 6.407h-1.04c-.603 0-1.096.49-1.096 1.088 0 .598.493 1.088 1.095 1.088h18.983c.602 0 1.095-.49 1.095-1.088 0-.598-.493-1.088-1.095-1.088h-1.14a8.7 8.7 0 001.271-1.555c2.53 1.523 4.611 3.568 6.046 5.918l.778 1.49c.8 1.643 1.26 3.307 1.37 4.83v.75c0 3.101-1.063 6.093-3.068 8.671z" id="Shape"/><path d="M15.17 25.585a2.793 2.793 0 00-2.804 2.784 2.793 2.793 0 002.804 2.785c1.545 0 2.804-1.25 2.804-2.785.011-1.533-1.248-2.784-2.804-2.784zm0 3.405a.61.61 0 110-1.219.61.61 0 01.614.61.597.597 0 01-.614.609zM26.945 5.035c-3.67 0-6.637 2.948-6.637 6.592.01 3.634 2.979 6.582 6.637 6.593 3.67 0 6.638-2.948 6.638-6.593 0-3.644-2.968-6.592-6.638-6.592zm0 11.009c-2.453 0-4.447-1.98-4.447-4.417s1.994-4.417 4.447-4.417c2.454 0 4.447 1.98 4.447 4.417s-1.993 4.417-4.447 4.417z" id="Shape"/></g></g></g></svg>
